assets/icons/power.svg

<svg width="25" height="25" viewBox="0 0 25 25" fill="none" xmlns="http://www.w3.org/2000/svg">
<g id="power">
<path id="iconDefault" fill-rule="evenodd" clip-rule="evenodd" d="M15.2736 1.1047C15.5292 1.22914 15.6686 1.51044 15.6129 1.78923L14.0631 9.53819L20.1516 11.0603C20.3617 11.1129 20.5297 11.2705 20.5955 11.4768C20.6613 11.6832 20.6155 11.9089 20.4745 12.0734L10.4745 23.7401C10.2895 23.9559 9.9821 24.0197 9.72646 23.8953C9.47082 23.7708 9.33139 23.4895 9.38715 23.2108L10.9369 15.4618L4.84842 13.9397C4.63828 13.8871 4.47032 13.7295 4.40453 13.5232C4.33874 13.3168 4.38451 13.091 4.52547 12.9266L14.5255 1.25991C14.7105 1.04404 15.0179 0.980262 15.2736 1.1047ZM6.13267 12.9723L11.8183 14.3937C12.1419 14.4746 12.345 14.7954 12.2795 15.1226L11.0819 21.1107L18.8673 12.0277L13.1818 10.6063C12.8581 10.5254 12.6551 10.2046 12.7205 9.87742L13.9181 3.88924L6.13267 12.9723Z" fill="#18303F"/>
</g>
</svg>

<svg width="25" height="25" viewBox="0 0 25 25" fill="none"><g id="power"><path id="iconDefault" fill-rule="evenodd" clip-rule="evenodd" d="M15.274 1.105a.625.625 0 0 1 .339.684l-1.55 7.75 6.089 1.521a.625.625 0 0 1 .322 1.013l-10 11.667a.625.625 0 0 1-1.087-.53l1.55-7.748-6.089-1.522a.625.625 0 0 1-.323-1.013l10-11.667a.625.625 0 0 1 .749-.155ZM6.133 12.972l5.685 1.422c.324.08.527.401.462.729l-1.198 5.988 7.785-9.083-5.685-1.422a.625.625 0 0 1-.462-.729l1.198-5.988-7.785 9.083Z" fill="#18303F"/></g></svg>
